static/logos/tally-wordmark-color.svg

<svg width="93" height="32" viewBox="0 0 93 32" fill="none" xmlns="http://www.w3.org/2000/svg">
<g clip-path="url(#clip0_1_832)">
<path d="M56.3125 11.2047V9.05743H65.8681V11.2047H62.3415V20.9998H59.9217V11.2047H56.3125Z" fill="#302F29"/>
<path d="M68.3432 21.165C67.7981 21.165 67.3081 21.0631 66.8731 20.8594C66.4382 20.6557 66.094 20.3611 65.8408 19.9757C65.5875 19.5848 65.4609 19.1113 65.4609 18.5552C65.4609 17.6192 65.8105 16.9089 66.5097 16.4244C67.209 15.9343 68.3129 15.6811 69.8216 15.6646L70.887 15.648V15.136C70.887 14.7451 70.7713 14.445 70.5401 14.2358C70.3143 14.021 69.962 13.9164 69.4829 13.9219C69.1306 13.9274 68.7947 14.01 68.4754 14.1697C68.1615 14.3294 67.9468 14.6074 67.8312 15.0038H65.8242C65.8573 14.3872 66.0362 13.8806 66.3611 13.4842C66.6859 13.0823 67.1264 12.7849 67.6825 12.5922C68.2441 12.394 68.88 12.2949 69.5903 12.2949C70.4658 12.2949 71.1678 12.405 71.6963 12.6253C72.2249 12.84 72.6076 13.1511 72.8443 13.5585C73.0811 13.9605 73.1995 14.4395 73.1995 14.9956V20.9998H71.1843L70.9861 19.5297C70.6943 20.1464 70.3281 20.5731 69.8876 20.8099C69.4527 21.0466 68.9379 21.165 68.3432 21.165ZM69.1526 19.5793C69.3728 19.5793 69.5848 19.5407 69.7885 19.4637C69.9978 19.3811 70.1822 19.2737 70.3419 19.1416C70.5071 19.0039 70.6392 18.8497 70.7383 18.6791C70.8374 18.5084 70.887 18.3322 70.887 18.1505V16.8869L70.0198 16.9034C69.6178 16.9089 69.2434 16.9584 68.8966 17.0521C68.5497 17.1401 68.2689 17.2861 68.0542 17.4898C67.8449 17.6935 67.7403 17.9688 67.7403 18.3157C67.7403 18.7121 67.878 19.0232 68.1533 19.2489C68.4286 19.4692 68.7617 19.5793 69.1526 19.5793Z" fill="#302F29"/>
<path d="M77.7255 21.1485C77.0978 21.1485 76.5995 21.0741 76.2306 20.9255C75.8617 20.7768 75.5892 20.5814 75.413 20.3391C75.2368 20.0913 75.1239 19.8188 75.0743 19.5215C75.0248 19.2186 75 18.9131 75 18.6047V8.72705H77.3621V18.3074C77.3621 18.6212 77.4281 18.8773 77.5603 19.0755C77.6979 19.2682 77.954 19.3866 78.3284 19.4306L78.733 19.4554V20.942C78.5679 20.9971 78.3999 21.0439 78.2293 21.0824C78.0586 21.1265 77.8906 21.1485 77.7255 21.1485Z" fill="#302F29"/>
<path d="M82.5302 21.1485C81.9025 21.1485 81.4042 21.0741 81.0353 20.9255C80.6664 20.7768 80.3939 20.5814 80.2177 20.3391C80.0415 20.0913 79.9286 19.8188 79.8791 19.5215C79.8295 19.2186 79.8047 18.9131 79.8047 18.6047V8.72705H82.1668V18.3074C82.1668 18.6212 82.2329 18.8773 82.365 19.0755C82.5026 19.2682 82.7587 19.3866 83.1331 19.4306L83.5378 19.4554V20.942C83.3726 20.9971 83.2047 21.0439 83.034 21.0824C82.8633 21.1265 82.6954 21.1485 82.5302 21.1485Z" fill="#302F29"/>
<path d="M85.7567 23.7253C85.1731 23.7253 84.7601 23.6757 84.5178 23.5766C84.2811 23.483 84.1627 23.4362 84.1627 23.4362V21.9L85.0051 21.9331C85.374 21.9551 85.6713 21.9358 85.8971 21.8753C86.1228 21.8202 86.2935 21.7459 86.4091 21.6523C86.5303 21.5587 86.6156 21.4596 86.6652 21.355C86.7147 21.2558 86.7505 21.176 86.7725 21.1154L86.9295 20.6447L83.6094 12.4601H85.9962L88.0444 18.0266L90.1174 12.4601H92.4712L89.0107 21.0494C88.7134 21.7762 88.3995 22.3323 88.0692 22.7177C87.7388 23.1031 87.3809 23.3674 86.9955 23.5105C86.6156 23.6537 86.2027 23.7253 85.7567 23.7253Z" fill="#302F29"/>
<path d="M17.2367 30.7147C17.5738 31.3046 18.4243 31.3046 18.7614 30.7146L35.4983 1.42353C35.8328 0.83817 35.4101 0.109863 34.7359 0.109863H1.26215C0.587983 0.109863 0.165317 0.83817 0.499788 1.42353L17.2367 30.7147Z" fill="#33125C"/>
<path d="M25.8984 8.34143C25.8984 7.85648 26.2915 7.46338 26.7765 7.46338H28.5326C29.0175 7.46338 29.4106 7.85648 29.4106 8.34143V22.3902C29.4106 22.8752 29.0175 23.2683 28.5326 23.2683H26.7765C26.2915 23.2683 25.8984 22.8752 25.8984 22.3902V8.34143Z" fill="#F81CE5"/>
<path d="M34.6846 13.6099C35.1696 13.6099 35.5627 14.003 35.5627 14.4879V16.244C35.5627 16.729 35.1696 17.1221 34.6846 17.1221H20.6359C20.1509 17.1221 19.7578 16.729 19.7578 16.244V14.4879C19.7578 14.003 20.1509 13.6099 20.6359 13.6099H34.6846Z" fill="#F81CE5"/>
</g>
<defs>
<clipPath id="clip0_1_832">
<rect width="93" height="32" fill="white"/>
</clipPath>
</defs>
</svg>

<svg xmlns="http://www.w3.org/2000/svg" width="186" height="64" fill="none" viewBox="0 0 93 32"><g clip-path="url(#a)"><path fill="#302F29" d="M56.313 11.205V9.057h9.555v2.148h-3.526V21h-2.42v-9.795h-3.61ZM68.343 21.165a3.426 3.426 0 0 1-1.47-.306 2.45 2.45 0 0 1-1.032-.883c-.253-.391-.38-.865-.38-1.42 0-.937.35-1.647 1.049-2.132.699-.49 1.803-.743 3.312-.76l1.065-.016v-.512c0-.39-.116-.691-.347-.9-.226-.215-.578-.32-1.057-.314a2.306 2.306 0 0 0-1.008.248c-.313.16-.528.437-.644.834h-2.007c.033-.617.212-1.123.537-1.52.325-.402.765-.7 1.322-.892.561-.198 1.197-.297 1.907-.297.876 0 1.578.11 2.106.33.529.215.912.526 1.148.934.237.402.356.88.356 1.437V21h-2.016l-.198-1.47c-.292.616-.658 1.043-1.098 1.28-.435.237-.95.355-1.545.355Zm.81-1.586c.22 0 .432-.038.635-.115.21-.083.394-.19.554-.322a1.74 1.74 0 0 0 .396-.463c.1-.17.149-.347.149-.528v-1.264l-.867.016a4.533 4.533 0 0 0-1.123.15 1.862 1.862 0 0 0-.843.437c-.21.204-.314.479-.314.826 0 .396.138.707.413.933.276.22.609.33 1 .33ZM77.725 21.148c-.627 0-1.125-.074-1.494-.223-.37-.148-.642-.344-.818-.586a1.946 1.946 0 0 1-.339-.817 5.674 5.674 0 0 1-.074-.917V8.727h2.362v9.58c0 .314.066.57.198.769.138.192.394.31.768.355l.405.024v1.487a5.221 5.221 0 0 1-.504.14 2.01 2.01 0 0 1-.504.066ZM82.53 21.148c-.627 0-1.126-.074-1.495-.223-.369-.148-.641-.344-.817-.586a1.945 1.945 0 0 1-.339-.817 5.663 5.663 0 0 1-.074-.917V8.727h2.362v9.58c0 .314.066.57.198.769.138.192.394.31.768.355l.405.024v1.487a5.223 5.223 0 0 1-.504.14c-.17.044-.339.066-.504.066ZM85.757 23.725c-.584 0-.997-.05-1.24-.148l-.354-.14V21.9l.842.033c.369.022.666.003.892-.058.226-.055.396-.13.512-.223a.843.843 0 0 0 .256-.297c.05-.1.085-.179.107-.24l.157-.47-3.32-8.185h2.387l2.048 5.567 2.073-5.567h2.354l-3.46 8.59c-.298.726-.611 1.282-.942 1.668-.33.385-.688.65-1.073.793-.38.143-.793.214-1.24.214Z"/><path fill="#33125C" d="M17.237 30.715a.878.878 0 0 0 1.524 0L35.498 1.424A.878.878 0 0 0 34.736.11H1.262A.878.878 0 0 0 .5 1.424l16.737 29.29Z"/><path fill="#F81CE5" d="M25.898 8.341c0-.485.393-.878.878-.878h1.757c.484 0 .878.393.878.878v14.05a.878.878 0 0 1-.878.877h-1.757a.878.878 0 0 1-.878-.878V8.341Z"/><path fill="#F81CE5" d="M34.685 13.61c.485 0 .878.393.878.878v1.756a.878.878 0 0 1-.878.878h-14.05a.878.878 0 0 1-.877-.878v-1.756c0-.485.393-.878.878-.878h14.049Z"/></g><defs><clipPath id="a"><path fill="#fff" d="M0 0h93v32H0z"/></clipPath></defs></svg>
